X: 05053
T: MABOU
C: Bob McQuillen 31 Dec 80
B: Bob's Note Book 5 #53
%R: reel
Z: 2021 John Chambers <jc:trillian.mit.edu>
M: C
L: 1/8
K: A
FE \
| CA,CE FEAc | ecfe cAef | abae fece | feaf ecBc |
| AECB, A,CEF | Acef afec | ecfe cAea | ecBc AF :|
|: AB \
| cABA FEAB | cAce feaf | ecBc ABAF | EFAB cAAB |
| cABA cABA | cefa feaf | efae feaf | ecAc BA :|
%%begintext align
%% Mabou is a town on
%% Cape Breton Island in Nova Scotia. They have a
%% ceilidh (pro. kay-lee) there every year. It's a big
%% music & dance party, and I went to it once. Who do you
%% suppose I saw there? My dear Nancy Prett, from Dublin, N.H.!
%%endtext

%%sep 1 1 500

%%sep 1 1 500

